X: 1
T: Gan Ainm
M: 2/4
L: 1/8
R: polka
K: Dmaj
|:(E>D E>)_F|E>E E>(B|_c>) B _c>B|A2 A2|_c2 (c>B)|
[1 G2 G2|G>B e>c|A2 A2 :|2 G>B e>c|A2 A>B|A4 ||
|: (a>^ga>) b|g>g g>(f|e)>(f e)>c|A2 (AB)|_c2 (c>B)|
[1 G2 G2|G>B e>c|A2 A2 :|2 G>B e>c|A2 A>B|A4 ||
